static/img/general/features-icon-3.svg

<svg width="32" height="45" viewBox="0 0 32 45" fill="none" xmlns="http://www.w3.org/2000/svg">
<path d="M8.00903 28.3396C9.31194 27.0367 9.31194 24.9163 8.00903 23.6134C7.37766 22.9824 6.53858 22.6346 5.64594 22.6346C5.12993 22.6346 4.63211 22.7513 4.18201 22.9714C2.59483 20.7006 1.75884 18.0433 1.75884 15.2483C1.75884 8.0952 7.34676 2.16945 14.48 1.75747C14.9651 1.72931 15.3352 1.31355 15.3074 0.828778C15.2792 0.343662 14.8635 -0.0254094 14.3787 0.00136972C6.31577 0.467259 0 7.16446 0 15.2483C0 18.4735 0.98568 21.537 2.85439 24.139C2.00054 25.4354 2.14336 27.2001 3.28285 28.3396C3.91422 28.9706 4.7533 29.3184 5.64594 29.3184C6.53858 29.3184 7.37766 28.9706 8.00903 28.3396ZM4.52637 24.8573C4.83501 24.5486 5.24048 24.3941 5.64594 24.3941C6.05106 24.3941 6.45653 24.5486 6.76518 24.8573C7.38247 25.4742 7.38247 26.4788 6.76518 27.0957C6.14788 27.713 5.14366 27.713 4.52637 27.0957C3.90942 26.4788 3.90942 25.4745 4.52637 24.8573Z" fill="#E20E17"/>
<path d="M28.832 30.4687C28.2762 30.4687 27.7536 30.6136 27.3001 30.8677C26.8981 29.5929 25.7047 28.666 24.2988 28.666C23.4092 28.666 22.6048 29.0371 22.0322 29.6324C21.8732 29.4676 21.6964 29.3203 21.5052 29.193C23.5321 28.2855 25.3562 26.9377 26.8322 25.2303C29.2265 22.4597 30.5452 18.9146 30.5452 15.2482C30.5452 12.0248 29.5595 8.95957 27.6912 6.35718C28.545 5.06079 28.4022 3.29646 27.2624 2.15663C25.9594 0.853716 23.8394 0.853716 22.5362 2.15663C21.2333 3.45954 21.2333 5.5799 22.5362 6.88281C23.1878 7.53443 24.0434 7.86025 24.8993 7.86025C25.4009 7.86025 25.9018 7.74729 26.3622 7.52345C27.95 9.79487 28.7864 12.4542 28.7864 15.2482C28.7864 21.61 24.4677 26.9874 18.3782 28.404V23.6703C21.8657 22.3828 24.2483 19.0117 24.2483 15.2482C24.2483 10.2992 20.2218 6.27272 15.2725 6.27272C10.3235 6.27272 6.297 10.2989 6.297 15.2482C6.297 17.2014 6.91395 19.0588 8.08056 20.6188C9.09817 21.9794 10.5061 23.0361 12.0858 23.639V36.5751L10.981 34.7627C10.0526 33.2387 8.11455 32.7443 6.56926 33.6362C5.09949 34.4849 4.52614 36.3471 5.26806 37.8831L8.54851 44.5103C8.70198 44.8203 9.01372 44.9999 9.33747 44.9999C9.46862 44.9999 9.60148 44.9707 9.7268 44.9086C10.1621 44.6929 10.3403 44.1653 10.1251 43.7303L6.84804 37.1107C6.50849 36.4072 6.77216 35.5503 7.44885 35.1596C8.1482 34.7558 9.05903 34.9882 9.47926 35.678L12.2142 40.1655C12.4195 40.502 12.8236 40.661 13.2029 40.5545C13.5823 40.4481 13.8446 40.102 13.8446 39.7076V19.5298C13.8446 18.7649 14.4671 18.1428 15.232 18.1428C15.9969 18.1428 16.6193 18.7649 16.6193 19.5298V23.0083C16.619 23.0145 16.6193 23.0207 16.6193 23.0272V36.2321C16.6193 36.7179 17.0128 37.1113 17.4986 37.1113C17.9844 37.1113 18.3782 36.7179 18.3782 36.2321V31.8122C18.3782 31.0472 19.0003 30.4248 19.7652 30.4248C20.5301 30.4248 21.1526 31.0472 21.1526 31.8122V36.5521C21.1526 37.0379 21.5464 37.4317 22.0318 37.4317C22.5176 37.4317 22.9114 37.0379 22.9114 36.5521V31.8122C22.9114 31.0472 23.5339 30.4248 24.2988 30.4248C25.0637 30.4248 25.6858 31.0472 25.6858 31.8122V36.6115C25.6858 37.0973 26.0796 37.4911 26.5654 37.4911C27.0512 37.4911 27.4447 37.0973 27.4447 36.6115V33.6149C27.4447 32.85 28.0671 32.2276 28.832 32.2276C29.5969 32.2276 30.2194 32.85 30.2194 33.6149V44.1199C30.2194 44.6057 30.6128 44.9995 31.0986 44.9995C31.5844 44.9995 31.9782 44.6057 31.9782 44.1199V33.6149C31.9782 31.8801 30.5668 30.4687 28.832 30.4687ZM23.78 5.63929C23.1627 5.022 23.1627 4.01778 23.78 3.40048C24.0887 3.09184 24.4938 2.93769 24.8993 2.93769C25.3047 2.93769 25.7102 3.09184 26.0188 3.40048C26.6358 4.01778 26.6358 5.022 26.0188 5.63929C25.4015 6.25624 24.397 6.25624 23.78 5.63929ZM8.05584 15.2482C8.05584 11.2688 11.2934 8.03122 15.2728 8.03122C19.2519 8.03122 22.4895 11.2688 22.4895 15.2482C22.4895 18.0504 20.8474 20.5824 18.3782 21.7638V19.5298C18.3782 19.0361 18.2635 18.5685 18.0596 18.152C18.8396 17.4002 19.3007 16.352 19.3007 15.2482C19.3007 13.0269 17.4938 11.22 15.2728 11.22C13.0515 11.22 11.2446 13.0269 11.2446 15.2482C11.2446 16.3197 11.681 17.3493 12.4311 18.0998C12.2111 18.529 12.0858 19.0151 12.0858 19.5298V21.7267C9.63685 20.5299 8.05584 18.048 8.05584 15.2482ZM13.6362 16.8199C13.2307 16.4004 13.0035 15.8446 13.0035 15.2482C13.0035 13.9968 14.0214 12.9788 15.2725 12.9788C16.5239 12.9788 17.5419 13.9968 17.5419 15.2482C17.5419 15.8531 17.296 16.4292 16.8779 16.8502C16.3986 16.5546 15.8349 16.3839 15.232 16.3839C14.6497 16.3839 14.1045 16.5432 13.6362 16.8199Z" fill="#E20E17"/>
<path d="M18.3866 2.07232C18.618 2.07232 18.8449 1.97825 19.0083 1.81448C19.1721 1.65106 19.2662 1.42413 19.2662 1.19273C19.2662 0.96167 19.1721 0.734734 19.0083 0.570969C18.8449 0.407547 18.618 0.313477 18.3866 0.313477C18.1555 0.313477 17.9286 0.407547 17.7652 0.570969C17.6014 0.734734 17.5073 0.96167 17.5073 1.19273C17.5073 1.42413 17.6014 1.65106 17.7652 1.81448C17.9286 1.97825 18.1555 2.07232 18.3866 2.07232Z" fill="#E20E17"/>
</svg>

<svg width="32" height="45" viewBox="0 0 32 45" fill="none" xmlns="http://www.w3.org/2000/svg"><path d="M8.009 28.34a3.346 3.346 0 0 0 0-4.727 3.321 3.321 0 0 0-2.363-.978c-.516 0-1.014.116-1.464.336a13.38 13.38 0 0 1-2.423-7.723c0-7.153 5.588-13.079 12.721-13.49A.88.88 0 0 0 14.379 0C6.316.467 0 7.164 0 15.248c0 3.226.986 6.289 2.854 8.891a3.348 3.348 0 0 0 .429 4.2c.631.632 1.47.98 2.363.98s1.732-.348 2.363-.98zm-3.483-3.483a1.578 1.578 0 0 1 1.12-.463 1.584 1.584 0 0 1 1.12 2.702 1.585 1.585 0 0 1-2.24 0 1.585 1.585 0 0 1 0-2.239z" fill="#E20E17"/><path d="M28.832 30.469c-.556 0-1.078.145-1.532.399a3.152 3.152 0 0 0-3.001-2.202c-.89 0-1.694.371-2.267.966a3.185 3.185 0 0 0-.527-.439 15.27 15.27 0 0 0 9.04-13.945c0-3.223-.986-6.288-2.854-8.89a3.347 3.347 0 0 0-.429-4.201 3.346 3.346 0 0 0-4.726 0 3.346 3.346 0 0 0 0 4.726 3.346 3.346 0 0 0 3.826.64 13.386 13.386 0 0 1 2.424 7.725c0 6.362-4.318 11.74-10.408 13.156V23.67a9.014 9.014 0 0 0 5.87-8.422c0-4.949-4.026-8.975-8.976-8.975-4.949 0-8.975 4.026-8.975 8.975 0 1.953.617 3.81 1.784 5.37a9.068 9.068 0 0 0 4.005 3.021v12.936l-1.105-1.812a3.24 3.24 0 0 0-4.412-1.127 3.274 3.274 0 0 0-1.3 4.247l3.28 6.627a.88.88 0 0 0 1.576-.78l-3.277-6.62a1.506 1.506 0 0 1 .6-1.95 1.509 1.509 0 0 1 2.031.518l2.735 4.488a.88.88 0 0 0 1.63-.458V19.53a1.389 1.389 0 0 1 2.775 0v16.702a.879.879 0 1 0 1.76 0v-4.42c0-.765.621-1.387 1.386-1.387a1.39 1.39 0 0 1 1.388 1.387v4.74a.88.88 0 1 0 1.758 0v-4.74a1.39 1.39 0 0 1 1.388-1.387c.765 0 1.387.622 1.387 1.387v4.8a.88.88 0 1 0 1.759 0v-2.997c0-.765.622-1.387 1.387-1.387s1.387.622 1.387 1.387V44.12a.88.88 0 1 0 1.76 0V33.615a3.15 3.15 0 0 0-3.147-3.146zM23.78 5.639a1.585 1.585 0 0 1 0-2.239 1.578 1.578 0 0 1 1.12-.462c.405 0 .81.154 1.119.462a1.585 1.585 0 0 1 0 2.24 1.585 1.585 0 0 1-2.239 0zM8.056 15.25c0-3.98 3.237-7.218 7.217-7.218 3.979 0 7.216 3.238 7.216 7.217a7.253 7.253 0 0 1-4.11 6.516V19.53c0-.494-.116-.962-.32-1.378a4.046 4.046 0 0 0 1.242-2.904 4.033 4.033 0 0 0-4.028-4.028 4.033 4.033 0 0 0-4.028 4.028A4.05 4.05 0 0 0 12.43 18.1c-.22.429-.345.915-.345 1.43v2.197a7.18 7.18 0 0 1-4.03-6.479zm5.58 1.57a2.247 2.247 0 0 1-.632-1.57 2.272 2.272 0 0 1 2.269-2.27 2.272 2.272 0 0 1 2.269 2.27 2.28 2.28 0 0 1-.664 1.601 3.125 3.125 0 0 0-1.646-.466c-.582 0-1.127.16-1.596.436zm4.751-14.748a.885.885 0 0 0 .621-.258.885.885 0 0 0 .258-.621.886.886 0 0 0-.258-.622.886.886 0 0 0-.621-.258.886.886 0 0 0-.622.258.886.886 0 0 0-.258.622.885.885 0 0 0 .88.88z" fill="#E20E17"/></svg>
